X:137
T:no name
R:polka
Z:id:hn-polka-137
M:2/4
L:1/8
K:G
DG GB | AG EG/E/ | DG GA | BA A2 |
DG GB | AG EG/E/ | DG GA | BG G2 :|
|: Bd cB | AG EG/E/ | DG GA | BA A2 |
Bd cB | AG EG/E/ | DG GA | BG G2 :|

